assets/svg/1F4C2.svg

<svg xmlns="http://www.w3.org/2000/svg" viewBox="0 0 64 64" enable-background="new 0 0 64 64"><g fill="#243438"><path d="m24.382 8.809l-.474-6.01-22.282 4.845v48.12c0 1.721 1.123 4.965 5.364 4.965 1.669 0 3.7-.515 6-1.523l39.575-15.702v-41.806l-28.19 7.117"/><path d="m52.14.126c-8.762 2.211-17.528 4.426-26.291 6.634-.105-1.318-.211-2.642-.312-3.962-.088-1.087-.971-1.806-2.06-1.57-7.429 1.614-14.856 3.23-22.282 4.845-.701.152-1.193.873-1.193 1.57 0 11.32 0 22.644 0 33.966 0 4.647 0 9.295 0 13.945 0 2.697 1.53 5.389 4.171 6.308 3.363 1.168 6.71-.083 9.846-1.33 12.998-5.153 25.992-10.306 38.987-15.464.687-.271 1.194-.784 1.194-1.57 0-13.932 0-27.869 0-41.805.0001-1.072-1.036-1.825-2.06-1.567m-47.602 58.29c-1.456-.886-1.283-2.792-1.283-4.241 0-2.332 0-4.664 0-6.998 0-12.741 0-25.482 0-38.22 6.395-1.388 12.789-2.779 19.18-4.172.105 1.348.213 2.689.319 4.03.025.337.137.613.301.84.328.555.948.932 1.757.728 8.712-2.199 17.422-4.396 26.13-6.595 0 12.876 0 25.75 0 38.624-10.346 4.103-20.692 8.206-31.03 12.311-3.82 1.516-11.653 5.964-15.377 3.695"/></g><path fill="#808284" d="m3.048 16.229v38.945c0 0 0 6.793 9.855 2.489l38.24-15.17v-39.16l-27.503 6.941-.467-5.969-20.13 4.38v7.549"/><path fill="#aeaeae" d="m16.372 18.385l-13.08 37.02c0 0 0 6.459 9.738 2.368l37.796-14.42 13.08-37.23-29.451 7.101 0 0-18.09 4.091v1.078"/><path fill="#c3c3c3" d="m26.28 34.26c-2.431-6.38 7.44-13.27 10.614-19.694.382-.777.8-1.521 1.249-2.233l-3.687.887-18.09 4.091v1.078l-13.08 37.02c0 0 0 6.459 9.738 2.368l22.325-8.519c-4.04-4.258-7.089-9.77-9.08-14.993"/></svg>

<?xml version="1.0" encoding="utf-8"?>
<!-- Generator: Adobe Illustrator 16.0.0, SVG Export Plug-In . SVG Version: 6.00 Build 0)  -->
<!DOCTYPE svg PUBLIC "-//W3C//DTD SVG 1.1//EN" "http://www.w3.org/Graphics/SVG/1.1/DTD/svg11.dtd">
<svg version="1.1" id="Layer_1" xmlns="http://www.w3.org/2000/svg" xmlns:xlink="http://www.w3.org/1999/xlink" x="0px" y="0px"
	 width="64px" height="64px" viewBox="0 0 64 64" enable-background="new 0 0 64 64" xml:space="preserve">
<g>
	<path fill="#243438" d="M24.382,8.809l-0.474-6.011L1.626,7.643v48.115c0,1.721,1.123,4.965,5.364,4.965
		c1.669,0,3.7-0.515,6.002-1.523l39.575-15.702V1.692L24.382,8.809z"/>
	<g>
		<path fill="none" d="M50.946,3.781c-8.711,2.199-17.421,4.396-26.133,6.595c-0.809,0.205-1.429-0.173-1.757-0.728
			c-0.164-0.227-0.276-0.503-0.301-0.84c-0.105-1.343-0.213-2.685-0.319-4.032C16.042,6.169,9.648,7.56,3.253,8.948
			c0,12.742,0,25.483,0,38.224c0,2.334,0,4.666,0,6.998c0,1.449-0.173,3.355,1.283,4.241c3.724,2.269,11.558-2.179,15.376-3.695
			c10.342-4.104,20.688-8.208,31.034-12.311C50.946,29.531,50.946,16.658,50.946,3.781z"/>
		<path fill="#243438" d="M52.138,0.126C43.376,2.337,34.61,4.552,25.847,6.76c-0.105-1.318-0.211-2.642-0.312-3.962
			c-0.088-1.087-0.971-1.806-2.06-1.57C16.046,2.842,8.619,4.458,1.193,6.073C0.492,6.225,0,6.946,0,7.643
			c0,11.32,0,22.644,0,33.966c0,4.647,0,9.295,0,13.945c0,2.697,1.53,5.389,4.171,6.308c3.363,1.168,6.71-0.083,9.846-1.33
			c12.998-5.153,25.992-10.306,38.987-15.464c0.687-0.271,1.194-0.784,1.194-1.57c0-13.932,0-27.869,0-41.805
			C54.199,0.621,53.162-0.132,52.138,0.126z M4.536,58.411c-1.456-0.886-1.283-2.792-1.283-4.241c0-2.332,0-4.664,0-6.998
			c0-12.741,0-25.482,0-38.224C9.648,7.56,16.042,6.169,22.437,4.776c0.105,1.348,0.213,2.689,0.319,4.032
			c0.025,0.337,0.137,0.613,0.301,0.84c0.328,0.555,0.948,0.932,1.757,0.728c8.712-2.199,17.422-4.396,26.133-6.595
			c0,12.876,0,25.75,0,38.624c-10.346,4.103-20.692,8.206-31.034,12.311C16.093,56.232,8.26,60.68,4.536,58.411z"/>
	</g>
	<path fill="#808284" d="M3.048,16.229v38.945c0,0,0,6.793,9.855,2.489l38.245-15.17V3.328l-27.503,6.941L23.178,4.3l-20.13,4.38
		V16.229z"/>
	<g>
		<path fill="#AEAEAE" d="M16.372,18.385L3.295,55.4c0,0,0,6.459,9.738,2.368l37.796-14.42L63.908,6.115l-29.451,7.101l0,0
			l-18.085,4.091V18.385z"/>
		<path fill="#C3C3C3" d="M26.28,34.256c-2.431-6.38,7.44-13.27,10.614-19.694c0.382-0.777,0.8-1.521,1.249-2.233l-3.687,0.887
			l-18.085,4.091v1.078L3.295,55.4c0,0,0,6.459,9.738,2.368l22.325-8.519C31.317,44.991,28.269,39.479,26.28,34.256z"/>
	</g>
</g>
</svg>
